!!!OTL: Sch&auml;fer, sag, wo ist deine Herde (Band 1), S. 175
!!!id: P0834
**kern
*clefG2
*k[b-]
*F:
{8c
8d
8e
16f
=1
4.f
8f
8f
8a
8.cc
16a
=2
4a
4g}
4r
=3
{16f
8c
8c
8e
16f
=4
4.g
8g
8g
8b-
8dd
8b-
=5
4b-
4a}
8r
=6
{8a
8cc
8cc
=7
8cc
8cc
8.dd
16cc
8cc
8b-}
=8
{8g
8a
=9
16b-
16g
8g
8b-
8g
8g
8g
8a
8cc
=10
4f}
=11
{8f
8d
8d
8c
8f
8d
=12
4c
8.f
16g
8a
8a
8g
8g
=13
2f}
4r
==
*-
!!!minrhy: 16
!!!meters: 4/4 ]  ZZ[5
!!!cut: Sch&auml;fer, sag, wo ist deine Herde (Band 1), S. 175
!!!reg: Lothringen
!!!trd: PINCK, Louis: Verklingende Weisen, Bd 1, Metz 1928
!!!rhy1: (X_X_X_)  X__.X_X_X_X_.X  X__X__0__
!!!rhy2: (X_X_X_)  X__.X_X_X_X_X_  X__X__0_
!!!key: P0834  16  F 4/4 ]  ZZ[5
!!!mod: HEPTATONIK IONISCH]  AMBITUS[9
!!!kad: 23411
!!!akz: 113_224_55_421_-6-531_
!!!fot: 'a__as'b__c__d__
!!!for: 'a__b__c__d__e__
!!!fok: '^a_^a_^a_^d_S__
!! PHRAS[AUFTAKTIG]
!!!fkt: Arbeits-, Berufslied
!! LOTH VKL
!! PR[11] 2K[9] 2G[15] 3K[2] 3G[4] 4A[9] 4Ü[0] 5A[2] 6K[0] 6G[0]
!! 7K[0] 7G[0] 8A[0] MEHR[0] SI[40] ABS[94] SR[23] SP[17]
!! ST[32] 2k[13] 2g[28] 3k[2] 3g[1] 4d[3] 4ü[0] 5d[0] 6k[0] 6g[2]
!! 7k[0] 7g[0] 8d[0] mehr[0] si[49] dm[-9] sr[40] sp[9]
!! 1F[2] 2F[71] 3F[23] 4F[0] LF[0] 2P[2] 3P[2] 4P[0] TRI[0] DF[5] AB[101]
!! TF[0] U3K[0] U3[0] U4[0] U4Ü[0] U5[20] U6K[0] U6[8] U7K[0] U7[11]
!! N1[23] N2K[0] N2[16] N3K[0] N3[16] N4[4] N4Ü[0] N5[2] N6K[0] N6[0]
!!!n7k: 0] N7[0] O1[0] O2K[0] O2[0] O3K[0] O3[0] HÖ[0
!!!RNB: symbol: &auml;      = a umlaut  (UTF-8: Å„)
